X:1
T:Eastbourne, 88.68.86
T:Eastbourne, 88.68.86
T:Henry Wells Hardy, ca. 1865
T:Public Domain Courtesy of the Cyber Hymnal™
C:Henry Wells Hardy, ca. 1865
Z:Public Domain
Z:Courtesy of the Cyber Hymnal™
%%score ( 1 2 ) ( 3 4 )
L:1/8
Q:1/4=108
M:4/4
K:Eb
V:1 treble 
V:2 treble 
V:3 bass 
V:4 bass 
V:1
 [EG]2 | [EA]2 [EG]2 [DF]2 E2 | [EF]2 [DA]2 [EG]2 [EG]2 | [EA]2 [Ec]2 [EB]2 [EG]2 | %4
 [EF]2 E2 [DF]2 [DF]2 | [EG]2 [EB]2 d2 z x3 | [DB]6 [GB]2 | [Ge]2 [Fd]2 [Ec]2 [B,B]2 | %8
 [CB]2 [C=A]2 [DB]2 [EG]2 | [Ec]2 [DB]2 [EA]2 [EG]2 | [EG]2 [CF]2 [DG]2 [EG]2 x | %11
 [EB]2 [EA]2 [EG]2 [DF]2 x | [B,E]6 |] %13
V:2
 x2 | x6 E2 | x8 | x8 | x2 E2 x4 | x4 F3 (c2 E) | x8 | x8 | x8 | x8 | x9 | x9 | x6 |] %13
V:3
 [E,B,]2 | [C,C]2 [E,B,]2 (B,A,) [C,G,]2 | [A,,C]2 [B,,B,]2 [E,B,]2 [E,B,]2 | %3
 [C,A,]2 [A,,A,]2 [E,G,]2 [E,B,]2 | [A,,C]2 [C,=A,]2 [B,,B,]2 [B,,B,]2 | %5
 [E,B,]2 [G,B,]2 [F,B,]2 [F,,=A,]2 x2 | [B,,B,]6 [E,B,]2 | [E,B,]2 [B,,B,]2 [C,G,]2 [D,F,]2 | %8
 [E,G,]2 F,2 [B,,F,]2 [E,G,]2 | [A,,A,]2 [B,,F,]2 [C,E,]2 [B,,G,]2 | C3 z C [G,=B,]2 [E,_B,]2 | %11
 [G,,B,]2 [A,,C]2 B,3 z A, | [E,G,]6 |] %13
V:4
 x2 | x4 B,,2 x2 | x8 | x8 | x8 | x10 | x8 | x8 | x2 F,2 x4 | x8 | A,,2 A,2 x5 | x4 B,,2 B,,2 x | %12
 x6 |] %13

